X:25
T:The Senator's Secret
C:Corwin Zekley
L:1/8
M:4/4
K:Gmin
"Gm" GABd cAFA | BG G/G/G DG G/G/G |"F" FAcA dAcA |"Gm" BAGF"Dm" DCB,A, |$"Gm" G,3 B,"F" A,CFC | %5
"Bb" B,DFD"C" C=EGA |"Eb" BAGF EGBd |1"F" cAFA"Gm" G2 GF :|2"F" cAFA"Gm" G2 Bc ||$"Gm" dggf g2 ga | %10
 bgaf gfdA |"F" cff=e f2 fg | afg=e fdcA |$"Gm" BcdB"F" ABcA |"Gm" G2 GF GABc | dD D/D/D dedc | %16
"Dm" BcBA"Gm" GABc |$"Gm" dggf g2 ga | bgaf gfdA |"F" cff=e f2 fg | afg=e fedc |$ %21
"G" d/d/d bd adgd |"F" f2 =eg fdcA |"Eb" BAGF EGBd |"Dm" cAFA"Gm" G2 z2 |] %25

